X: 10984
T: Drunken Gauger, The
R: jig
M: 6/8
K: Gmajor
|D|GAB cBA|BAG AGE|GBd g>ze|d(3Bcd edB|
cec (3BcdB|Az A BGE|DE/F/G AGA|BGG G2|
D|GAB TczA|BAG AGE|GBd g>ze|d(3Bcd edB|
cec (3BcdB|~A3 BGE|D>zG AGA|BGG G2|
|:D|GBd Jg>z e|dBe dBG|Ace ~a3|agb age|
dBd Jg>z e|dBe dBG|czA (3BcdB|AGA BGE|
DE/F/G/A/B/ ~c2A|BAG AGE|GBd g2e|dBe dBG|
Tc3 (3BcdB|AGA BGE|DE/F/G AGA|BGG G2:|

